brandFactory_export/1.Light/Tablet _1Light.svg

<?xml version="1.0" encoding="UTF-8"?>
<svg width="24px" height="24px" viewBox="0 0 24 24" version="1.1" xmlns="http://www.w3.org/2000/svg" xmlns:xlink="http://www.w3.org/1999/xlink">
    <title>1.Light/Tablet _1Light</title>
    <g id="Symbols" stroke="none" stroke-width="1" fill="none" fill-rule="evenodd">
        <g id="1.Light/Tablet-_1Light" fill="#5CB615" fill-rule="nonzero">
            <path d="M16.7176471,22.6386555 C17.8672269,22.6386555 19.7932773,22.1983193 19.7932773,19.2504202 L19.7932773,19.0689076 L3.99831933,19.0689076 L3.99831933,19.2537815 C3.99831933,19.2941176 3.99495798,19.3344538 3.99159664,19.3747899 C3.99159664,19.3815126 3.85042017,20.7731092 4.65378151,21.7008403 C5.19159664,22.3226891 6.07226891,22.6352941 7.27226891,22.6352941 L16.5294118,22.6319328 C16.5529412,22.6319328 16.5798319,22.6319328 16.6033613,22.6352941 C16.610084,22.6386555 16.6504202,22.6386555 16.7176471,22.6386555 L16.7176471,22.6386555 Z M5.28235294,1.47226891 C4.41848739,2.01008403 3.99831933,2.9512605 3.99831933,4.34621849 L3.99831933,18.0840336 L19.793418,18.0840336 C19.793418,13.0420168 19.7865546,4.33277311 19.7865546,4.33277311 C19.7865546,4.30252101 19.7865546,4.27226891 19.789916,4.24537815 C19.789916,4.23865546 19.887395,2.82016807 19.0537815,1.88907563 C18.5193277,1.2907563 17.6789916,0.988235294 16.5495798,0.988235294 L7.2487395,0.991596639 C7.22521008,0.991596639 7.20504202,0.991596639 7.18487395,0.988235294 L7.10084034,0.988235294 C6.85882353,0.98487395 6.01512605,1.01848739 5.28235294,1.47226891 Z M20.7378151,4.32941176 C20.7378151,4.32941176 20.7445378,14.5378151 20.7445378,19.2504202 C20.7445378,23.3613445 17.5344538,23.6235294 16.7142857,23.6235294 C16.5932773,23.6235294 16.5260504,23.6168067 16.5260504,23.6168067 C16.5260504,23.6168067 12.0184874,23.6201681 7.26890756,23.6201681 C2.51932773,23.6201681 3.04369748,19.2537815 3.04369748,19.2537815 L3.04369748,18.6218487 C3.04033613,18.605042 3.03361345,18.5915966 3.03361345,18.5747899 C3.03361345,18.5579832 3.04033613,18.5445378 3.04369748,18.5277311 L3.04369748,4.34621849 C3.04369748,0.231932773 6.3512605,0 7.09747899,0 C7.19159664,0 7.24537815,0.00336134454 7.24537815,0.00336134454 C7.24537815,0.00336134454 11.9815126,0 16.5495798,0 C21.1142857,0.00336134454 20.7378151,4.32941176 20.7378151,4.32941176 Z M11.887395,20.0470588 C12.4352941,20.0470588 12.7647059,20.3865546 12.7647059,20.9579832 C12.7647059,21.2369748 12.687395,21.4588235 12.5361345,21.6201681 C12.3815126,21.7848739 12.1563025,21.8689076 11.887395,21.8689076 C11.6184874,21.8689076 11.3932773,21.7848739 11.2386555,21.6201681 C11.087395,21.4588235 11.010084,21.2369748 11.010084,20.9579832 C11.010084,20.3865546 11.3361345,20.0470588 11.887395,20.0470588 Z" id="Tablet-_1Light"></path>
        </g>
    </g>
</svg>

<svg width="24" height="24" viewBox="0 0 24 24" xmlns="http://www.w3.org/2000/svg"><path d="M16.718 22.639c1.15 0 3.075-.44 3.075-3.389v-.181H3.998v.185c0 .04-.003.08-.006.12 0 .008-.142 1.4.662 2.327.538.622 1.418.934 2.618.934l9.257-.003c.024 0 .05 0 .074.003a.716.716 0 00.115.004zM5.282 1.472c-.864.538-1.284 1.48-1.284 2.874v13.738h15.795c0-5.042-.006-13.751-.006-13.751 0-.03 0-.06.003-.088 0-.006.097-1.425-.736-2.356-.535-.598-1.375-.9-2.504-.9L7.249.991c-.024 0-.044 0-.064-.004H7.1c-.242-.003-1.086.03-1.819.484zM20.738 4.33s.007 10.209.007 14.921c0 4.111-3.21 4.374-4.03 4.374-.122 0-.189-.007-.189-.007s-4.508.003-9.257.003c-4.75 0-4.225-4.366-4.225-4.366v-.632c-.004-.017-.01-.03-.01-.047s.006-.03.01-.047V4.346C3.044.232 6.35 0 7.097 0c.095 0 .148.003.148.003S11.982 0 16.55 0c4.564.003 4.188 4.33 4.188 4.33zm-8.85 15.718c.547 0 .877.34.877.911 0 .279-.078.5-.229.662-.154.165-.38.249-.649.249s-.494-.084-.648-.249c-.152-.161-.229-.383-.229-.662 0-.571.326-.91.877-.91z" fill="#5CB615" fill-rule="nonzero"/></svg>
